icons/guidance-icons/manoeuvers-sdk/left-roundabout-exit7.svg

<svg width="80" height="80" viewBox="0 0 80 80" fill="none" xmlns="http://www.w3.org/2000/svg">
<g clip-path="url(#clip0_15464_42605)">
<path d="M66 27C66 26.16 66 25.32 65.88 24.5H60.33C59.8775 20.815 58.4289 17.3232 56.14 14.4L60.06 10.48C58.9978 9.18782 57.8122 8.00222 56.52 6.94L52.6 10.86C49.6768 8.57114 46.185 7.12253 42.5 6.67V1.12C41.68 1 40.84 1 40 1C39.16 1 38.32 1 37.5 1.12V6.67C33.815 7.12253 30.3232 8.57114 27.4 10.86L23.48 6.94C22.1878 8.00222 21.0022 9.18782 19.94 10.48L23.86 14.4C21.5711 17.3232 20.1225 20.815 19.67 24.5H14.12C14 25.32 14 26.16 14 27C14 27.84 14 28.68 14.12 29.5H19.67C20.1225 33.185 21.5711 36.6768 23.86 39.6L19.94 43.52C21.0022 44.8122 22.1878 45.9978 23.48 47.06L27.4 43.14C30.2537 45.38 33.652 46.8206 37.2461 47.3139C40.8403 47.8072 44.501 47.3355 47.8527 45.9472C51.2044 44.5588 54.1264 42.3039 56.3191 39.4136C58.5117 36.5233 59.896 33.1018 60.33 29.5H65.88C66 28.68 66 27.84 66 27ZM40 42.5C36.9344 42.5 33.9376 41.5909 31.3887 39.8878C28.8397 38.1846 26.853 35.7638 25.6799 32.9316C24.5067 30.0993 24.1998 26.9828 24.7978 23.9761C25.3959 20.9694 26.8721 18.2076 29.0398 16.0398C31.2076 13.8721 33.9694 12.3959 36.9761 11.7978C39.9828 11.1998 43.0993 11.5067 45.9316 12.6799C48.7638 13.853 51.1846 15.8397 52.8878 18.3887C54.5909 20.9376 55.5 23.9344 55.5 27C55.4974 31.11 53.8635 35.051 50.9572 37.9572C48.051 40.8635 44.11 42.4974 40 42.5Z" fill="#C3CDDE" fill-opacity="0.35"/>
<path d="M45.9199 21L39.4699 36.39L36.1199 35.27L42.1199 21.27H34.8699V18.47H45.9199V21ZM66.9199 33.34L67.2799 45.92L67.0499 46.15L60.7599 39.86C60.08 39.1969 59.6074 38.3505 59.3997 37.4238C59.192 36.497 59.2581 35.5299 59.5899 34.64C61.1155 30.7212 61.4294 26.4346 60.4909 22.3353C59.5525 18.2361 57.4049 14.513 54.3263 11.6482C51.2477 8.78345 47.3799 6.90896 43.2238 6.26749C39.0677 5.62603 34.8147 6.24713 31.0157 8.05038C27.2166 9.85362 24.0464 12.7559 21.9157 16.3815C19.7849 20.007 18.7918 24.1888 19.0648 28.3852C19.3379 32.5817 20.8645 36.5995 23.4471 39.9183C26.0297 43.2372 29.5492 45.7043 33.5499 47C34.5507 47.3263 35.423 47.9602 36.0425 48.8113C36.662 49.6624 36.997 50.6873 36.9999 51.74V80H42.9999V51.74C42.999 49.4162 42.2621 47.1524 40.8949 45.2732C39.5278 43.3941 37.6007 41.9962 35.3899 41.28C32.1217 40.2331 29.3112 38.0972 27.4275 35.2286C25.5437 32.36 24.7006 28.9322 25.0387 25.5171C25.3768 22.102 26.8758 18.9061 29.2855 16.4626C31.6951 14.0191 34.8699 12.4757 38.2799 12.09C40.8546 11.7861 43.464 12.1548 45.8538 13.1599C48.2435 14.165 50.3319 15.7724 51.9153 17.8252C53.4987 19.878 54.5231 22.3061 54.8884 24.8728C55.2538 27.4394 54.9477 30.0569 53.9999 32.47C53.2422 34.4467 53.077 36.6013 53.5246 38.6704C53.9721 40.7395 55.013 42.6332 56.5199 44.12L62.6399 50.24L50.3899 49.89L49.9999 56H72.9999V33L66.9199 33.34Z" fill="white"/>
</g>
<defs>
<clipPath id="clip0_15464_42605">
<rect width="80" height="80" fill="white"/>
</clipPath>
</defs>
</svg>

<svg xmlns="http://www.w3.org/2000/svg" viewBox="0 0 80 80"><path d="M66,27c0-.84,0-1.68-.12-2.5H60.33a20.42,20.42,0,0,0-4.19-10.1l3.92-3.92a25.75,25.75,0,0,0-3.54-3.54L52.6,10.86A20.42,20.42,0,0,0,42.5,6.67V1.12C41.68,1,40.84,1,40,1s-1.68,0-2.5.12V6.67a20.42,20.42,0,0,0-10.1,4.19L23.48,6.94a25.75,25.75,0,0,0-3.54,3.54l3.92,3.92a20.42,20.42,0,0,0-4.19,10.1H14.12C14,25.32,14,26.16,14,27s0,1.68.12,2.5h5.55a20.42,20.42,0,0,0,4.19,10.1l-3.92,3.92a25.75,25.75,0,0,0,3.54,3.54l3.92-3.92A20.45,20.45,0,0,0,60.33,29.5h5.55C66,28.68,66,27.84,66,27ZM40,42.5A15.5,15.5,0,1,1,55.5,27,15.51,15.51,0,0,1,40,42.5Z" style="fill:#d1def4;opacity:0.35000000000000003"/><path d="M45.92,21,39.47,36.39l-3.35-1.12,6-14H34.87v-2.8H45.92Zm21,12.34.36,12.58-.23.23-6.29-6.29a4.9,4.9,0,0,1-1.17-5.22A21,21,0,1,0,33.55,47,5,5,0,0,1,37,51.74V80h6V51.74a11,11,0,0,0-7.61-10.46,15,15,0,0,1,2.89-29.19A15,15,0,0,1,54,32.47a10.89,10.89,0,0,0,2.52,11.65l6.12,6.12-12.25-.35L50,56H73V33Z" style="fill:#fff"/></svg>
